flaticon/stationery/cogwheel.svg

<svg xmlns="http://www.w3.org/2000/svg" width="32" height="32" viewBox="0 0 24 24">
    <path d="M 16.570312 13.914062 L 17.3125 14.613281 L 16.484375 15.492188 L 15.742188 14.789062 Z M 16.570312 13.914062"/>
    <path d="M23.355469 14.945312L23.316406 13.925781 21.941406 13.980469C21.796875 12.882812 21.324219 11.890625 20.628906 11.097656L21.523438 10.15625 20.777344 9.453125 19.886719 10.398438C19.03125 9.726562 17.972656 9.308594 16.816406 9.25L16.765625 8.019531 15.746094 8.0625 15.792969 9.289062C15.085938 9.382812 14.421875 9.613281 13.828125 9.953125L3.285156.429688C2.613281-.179688 1.472656-.132812.847656.523438.53125.859375.367188 1.292969.386719 1.75.402344 2.207031.601562 2.632812.945312 2.941406L11.527344 12.5C11.269531 13.085938 11.109375 13.730469 11.074219 14.402344L9.695312 14.457031 9.738281 15.476562 11.113281 15.425781C11.257812 16.519531 11.726562 17.515625 12.421875 18.304688L11.53125 19.25 12.273438 19.953125 13.164062 19.007812C14.023438 19.675781 15.082031 20.097656 16.238281 20.15625L16.289062 21.386719 17.308594 21.34375 17.257812 20.113281C18.390625 19.964844 19.417969 19.464844 20.21875 18.726562L21.191406 19.605469 21.875 18.847656 20.90625 17.96875C21.53125 17.132812 21.921875 16.109375 21.980469 15zM1.628906 2.183594C1.492188 2.058594 1.414062 1.890625 1.40625 1.710938 1.398438 1.53125 1.464844 1.359375 1.589844 1.226562 1.726562 1.082031 1.914062 1.003906 2.117188 1.003906 2.296875 1.003906 2.46875 1.066406 2.601562 1.1875L12.972656 10.554688C12.621094 10.859375 12.308594 11.203125 12.042969 11.585938zM16.527344 19.125C14.085938 19.125 12.105469 17.144531 12.105469 14.703125 12.105469 12.257812 14.085938 10.28125 16.527344 10.28125 18.96875 10.28125 20.949219 12.257812 20.949219 14.703125 20.949219 17.144531 18.96875 19.125 16.527344 19.125zM.617188 22.976562L1.382812 22.976562 1.382812 24 .617188 24zM8.539062 22.976562L9.96875 22.976562 9.96875 24 8.539062 24zM5.675781 22.976562L7.109375 22.976562 7.109375 24 5.675781 24zM11.402344 22.976562L12.832031 22.976562 12.832031 24 11.402344 24zM2.816406 22.976562L4.246094 22.976562 4.246094 24 2.816406 24zM19.988281 22.976562L21.417969 22.976562 21.417969 24 19.988281 24zM17.125 22.976562L18.554688 22.976562 18.554688 24 17.125 24zM14.261719 22.976562L15.695312 22.976562 15.695312 24 14.261719 24zM22.847656 22.976562L23.613281 22.976562 23.613281 24 22.847656 24zM22.847656 22.976562"/>
</svg>

<svg xmlns="http://www.w3.org/2000/svg" width="32" height="32" viewBox="0 0 24 24">
    <path d="M16.57 13.914l.742.7-.828.878-.742-.703zm0 0"/>
    <path d="M23.355 14.945l-.039-1.02-1.375.055a5.447 5.447 0 0 0-1.312-2.882l.894-.942-.746-.703-.89.945a5.395 5.395 0 0 0-3.07-1.148l-.051-1.23-1.02.043.047 1.226a5.372 5.372 0 0 0-1.965.664L3.285.43C2.613-.18 1.473-.133.848.523A1.67 1.67 0 0 0 .387 1.75c.015.457.215.883.558 1.191L11.527 12.5a5.433 5.433 0 0 0-.453 1.902l-1.379.055.043 1.02 1.375-.051a5.43 5.43 0 0 0 1.309 2.879l-.89.945.741.703.891-.945a5.446 5.446 0 0 0 3.074 1.148l.051 1.23 1.02-.042-.051-1.23a5.405 5.405 0 0 0 2.96-1.387l.973.878.684-.757-.969-.88A5.427 5.427 0 0 0 21.98 15zM1.63 2.184a.677.677 0 0 1-.223-.473.662.662 0 0 1 .184-.484.717.717 0 0 1 .527-.223c.18 0 .352.062.485.183l10.37 9.368a5.555 5.555 0 0 0-.929 1.03zm14.898 16.941a4.423 4.423 0 1 1 .002-8.846 4.423 4.423 0 0 1-.002 8.846zm0 0M.617 22.977h.766V24H.617zm0 0M8.54 22.977h1.429V24h-1.43zm0 0M5.676 22.977h1.433V24H5.676zm0 0M11.402 22.977h1.43V24h-1.43zm0 0M2.816 22.977h1.43V24h-1.43zm0 0M19.988 22.977h1.43V24h-1.43zm0 0M17.125 22.977h1.43V24h-1.43zm0 0M14.262 22.977h1.433V24h-1.433zm0 0M22.848 22.977h.765V24h-.765zm0 0"/>
</svg>
